products/org.csstudio.iter.css.product/SymbolLibrary_full_hd/SVG/Electrical/Miscellaneous/EQ Power Factor Capacitor.svg

<?xml version="1.0" encoding="UTF-8" standalone="no"?>
<!--
/*******************************************************************************
* Copyright (c) 2010-2016 ITER Organization.
* All rights reserved. This program and the accompanying materials
* are made available under the terms of the Eclipse Public License v1.0
* which accompanies this distribution, and is available at
* http://www.eclipse.org/legal/epl-v10.html
******************************************************************************/
-->
<!--
/*******************************************************************************
* Copyright (c) 2010-2016 ITER Organization.
* All rights reserved. This program and the accompanying materials
* are made available under the terms of the Eclipse Public License v1.0
* which accompanies this distribution, and is available at
* http://www.eclipse.org/legal/epl-v10.html
******************************************************************************/
-->

<svg
   xmlns:dc="http://purl.org/dc/elements/1.1/"
   xmlns:cc="http://creativecommons.org/ns#"
   xmlns:rdf="http://www.w3.org/1999/02/22-rdf-syntax-ns#"
   xmlns:svg="http://www.w3.org/2000/svg"
   xmlns="http://www.w3.org/2000/svg"
   xmlns:sodipodi="http://sodipodi.sourceforge.net/DTD/sodipodi-0.dtd"
   xmlns:inkscape="http://www.inkscape.org/namespaces/inkscape"
   width="99pt"
   height="99pt"
   viewBox="0 0 99 99"
   version="1.1"
   id="svg2"
   inkscape:version="0.91 r13725"
   sodipodi:docname="EQ Power Factor Capacitor.svg">
  <metadata
     id="metadata39">
    <rdf:RDF>
      <cc:Work
         rdf:about="">
        <dc:format>image/svg+xml</dc:format>
        <dc:type
           rdf:resource="http://purl.org/dc/dcmitype/StillImage" />
        <dc:title />
      </cc:Work>
    </rdf:RDF>
  </metadata>
  <defs
     id="defs37" />
  <sodipodi:namedview
     pagecolor="#ffffff"
     bordercolor="#666666"
     borderopacity="1"
     objecttolerance="10"
     gridtolerance="10"
     guidetolerance="10"
     inkscape:pageopacity="0"
     inkscape:pageshadow="2"
     inkscape:window-width="1366"
     inkscape:window-height="706"
     id="namedview35"
     showgrid="false"
     inkscape:zoom="1.5"
     inkscape:cx="-36.458333"
     inkscape:cy="61.875"
     inkscape:window-x="-8"
     inkscape:window-y="-8"
     inkscape:window-maximized="1"
     inkscape:current-layer="svg2" />
  <g
     id="surface1"
     transform="matrix(0.79778268,0,0,0.7986663,10.260617,10.259272)"
     style="stroke-width:1.69125381;stroke-miterlimit:3;stroke-dasharray:none">
    <path
       style="fill:#ffffff;fill-opacity:1;fill-rule:evenodd;stroke:#000000;stroke-width:0.90200203;stroke-linecap:round;stroke-linejoin:round;stroke-miterlimit:3;stroke-opacity:1;stroke-dasharray:none"
       d="m -2.82942e-4,52.375349 0.031250042,0 0,0.03125 -0.031250042,0 z"
       transform="matrix(1.875,0,0,1.875,1.367718,-96.977201)"
       id="path5"
       inkscape:connector-curvature="0" />
    <path
       style="fill:#ffffff;fill-opacity:1;fill-rule:evenodd;stroke:#000000;stroke-width:0.90200203;stroke-linecap:round;stroke-linejoin:round;stroke-miterlimit:3;stroke-opacity:1;stroke-dasharray:none"
       d="m -3.5878e-4,52.375283 0.03124998,0 0,0.03125 -0.03124998,0 z"
       transform="matrix(1.875,0,0,1.875,96.977235,-1.367703)"
       id="path7"
       inkscape:connector-curvature="0" />
    <path
       style="fill:#ffffff;fill-opacity:1;fill-rule:evenodd;stroke:#000000;stroke-width:0.90200203;stroke-linecap:round;stroke-linejoin:round;stroke-miterlimit:3;stroke-opacity:1;stroke-dasharray:none"
       d="m 8.33443e-4,1.440815 51.022924557,0 0,50.966675 -51.022924557,0 z"
       transform="matrix(1.875,0,0,1.875,1.35,-1.349966)"
       id="path9"
       inkscape:connector-curvature="0" />
    <path
       style="fill:#ffffff;fill-opacity:1;fill-rule:evenodd;stroke:#000000;stroke-width:0.90200203;stroke-linecap:round;stroke-linejoin:round;stroke-miterlimit:3;stroke-opacity:1;stroke-dasharray:none"
       d="m 2.30447e-4,38.799916 13.606252553,0 0,13.606252 -13.606252553,0 z"
       transform="matrix(1.875,0,0,1.875,5.495662,-68.398268)"
       id="path11"
       inkscape:connector-curvature="0" />
    <path
       style="fill:#ffffff;fill-opacity:1;fill-rule:evenodd;stroke:#000000;stroke-width:0.70531548;stroke-linecap:round;stroke-linejoin:round;stroke-miterlimit:3;stroke-dasharray:none;stroke-opacity:1"
       d="m 12.873051,17.319845 5.18303,-7.5735149 5.663932,0 -6.433372,5.9030299 5.150973,0 -10.334003,9.498736 5.43951,-7.828251 z"
       id="path13"
       inkscape:connector-curvature="0" />
    <path
       style="fill:none;stroke:#000000;stroke-width:0.90200203;stroke-linecap:round;stroke-linejoin:round;stroke-miterlimit:3;stroke-opacity:1;stroke-dasharray:none"
       d="m 26.359072,34.35967 8.220834,-4.739584"
       transform="matrix(1.875,0,0,1.875,11.873623,-11.873589)"
       id="path15"
       inkscape:connector-curvature="0" />
    <path
       style="fill:none;stroke:#000000;stroke-width:0.90200203;stroke-linecap:round;stroke-linejoin:round;stroke-miterlimit:3;stroke-dasharray:none;stroke-opacity:1"
       d="M 28.040322,26.920085 19.840321,12.720083 11.650736,26.920085"
       transform="matrix(1.875,0,0,1.875,11.873623,-11.873589)"
       id="path17"
       inkscape:connector-curvature="0" />
    <path
       style="fill:none;stroke:#000000;stroke-width:0.90200203;stroke-linecap:round;stroke-linejoin:round;stroke-miterlimit:3;stroke-opacity:1;stroke-dasharray:none"
       d="m 23.769488,29.880502 8.220835,-4.75"
       transform="matrix(1.875,0,0,1.875,11.873623,-11.873589)"
       id="path19"
       inkscape:connector-curvature="0" />
    <path
       style="fill:none;stroke:#000000;stroke-width:0.90200203;stroke-linecap:round;stroke-linejoin:round;stroke-miterlimit:3;stroke-opacity:1;stroke-dasharray:none"
       d="m 31.059072,32.149253 8.631252,15.081252"
       transform="matrix(1.875,0,0,1.875,11.873623,-11.873589)"
       id="path21"
       inkscape:connector-curvature="0" />
    <path
       style="fill:none;stroke:#000000;stroke-width:0.90200203;stroke-linecap:round;stroke-linejoin:round;stroke-miterlimit:3;stroke-opacity:1;stroke-dasharray:none"
       d="M 13.329903,34.35967 5.109068,29.620086"
       transform="matrix(1.875,0,0,1.875,11.873623,-11.873589)"
       id="path23"
       inkscape:connector-curvature="0" />
    <path
       style="fill:none;stroke:#000000;stroke-width:0.90200203;stroke-linecap:round;stroke-linejoin:round;stroke-miterlimit:3;stroke-opacity:1;stroke-dasharray:none"
       d="m 15.90907,29.880502 -8.208335,-4.75"
       transform="matrix(1.875,0,0,1.875,11.873623,-11.873589)"
       id="path25"
       inkscape:connector-curvature="0" />
    <path
       style="fill:none;stroke:#000000;stroke-width:0.90200203;stroke-linecap:round;stroke-linejoin:round;stroke-miterlimit:3;stroke-opacity:1;stroke-dasharray:none"
       d="m 8.629902,32.149253 -8.629167701,15.081252 16.818752701,0"
       transform="matrix(1.875,0,0,1.875,11.873623,-11.873589)"
       id="path27"
       inkscape:connector-curvature="0" />
    <path
       style="fill:none;stroke:#000000;stroke-width:0.90200203;stroke-linecap:round;stroke-linejoin:round;stroke-miterlimit:3;stroke-opacity:1;stroke-dasharray:none"
       d="m 17.250737,52.409672 0,-9.489584"
       transform="matrix(1.875,0,0,1.875,11.873623,-11.873589)"
       id="path29"
       inkscape:connector-curvature="0" />
    <path
       style="fill:none;stroke:#000000;stroke-width:0.90200203;stroke-linecap:round;stroke-linejoin:round;stroke-miterlimit:3;stroke-opacity:1;stroke-dasharray:none"
       d="m 39.25074,47.230505 -16.391669,0"
       transform="matrix(1.875,0,0,1.875,11.873623,-11.873589)"
       id="path31"
       inkscape:connector-curvature="0" />
    <path
       style="fill:none;stroke:#000000;stroke-width:0.90200203;stroke-linecap:round;stroke-linejoin:round;stroke-miterlimit:3;stroke-opacity:1;stroke-dasharray:none"
       d="m 22.429904,52.409672 0,-9.489584"
       transform="matrix(1.875,0,0,1.875,11.873623,-11.873589)"
       id="path33"
       inkscape:connector-curvature="0" />
  </g>
</svg>

<?xml version="1.0" encoding="UTF-8" standalone="no"?>
<!--
/*******************************************************************************
* Copyright (c) 2010-2016 ITER Organization.
* All rights reserved. This program and the accompanying materials
* are made available under the terms of the Eclipse Public License v1.0
* which accompanies this distribution, and is available at
* http://www.eclipse.org/legal/epl-v10.html
******************************************************************************/
-->
<!DOCTYPE svg PUBLIC "-//W3C//DTD SVG 1.0//EN" "C:\SeeVisioDTD\svg10.dtd">
<!-- Generated by Microsoft Visio 11.0, SVG Export, v1.0 CA_EE0309.svg Page-1 -->
<svg xmlns="http://www.w3.org/2000/svg" xmlns:v="http://schemas.microsoft.com/visio/2003/SVGExtensions/" width="0.728661in"
		height="0.727874in" viewBox="0 0 52.4636 52.4069" xml:space="preserve" color-interpolation-filters="sRGB" class="st5">
	<v:documentProperties v:langID="1036" v:metric="true" v:viewMarkup="false"/>
	<style type="text/css">
	<![CDATA[
		.st1 {fill:#ffffff;stroke:#000000;stroke-linecap:round;stroke-linejoin:round;stroke-width:0.24}
		.st2 {fill:#ffffff;stroke:#000000;stroke-linecap:round;stroke-linejoin:round;stroke-width:0.72}
		.st3 {fill:#ffffff;stroke:#000000;stroke-linecap:round;stroke-linejoin:round;stroke-width:0.720001}
		.st4 {stroke:#000000;stroke-linecap:round;stroke-linejoin:round;stroke-width:0.72}
		.st5 {fill:none;fill-rule:evenodd;font-size:12;overflow:visible;stroke-linecap:square;stroke-miterlimit:3}
	]]>
	</style>
	<g v:mID="0" v:index="1" v:groupContext="foregroundPage">
		<title>Page-1</title>
		<v:pageProperties v:drawingScale="0.0393701" v:pageScale="0.0393701" v:drawingUnits="24" v:shadowOffsetX="8.50395"
				v:shadowOffsetY="-8.50395"/>
		<g id="group1-1" transform="translate(0.72,-0.72)" v:mID="1" v:groupContext="group">
			<title>Sheet.1</title>
			<g id="shape2-2" v:mID="2" v:groupContext="shape" transform="translate(0.00944972,-51.0012)">
				<title>Feuille.2</title>
				<rect x="0" y="52.375" width="0.0318898" height="0.0318898" class="st1"/>
			</g>
			<g id="shape3-4" v:mID="3" v:groupContext="shape" transform="translate(51.0012,-0.00945992)">
				<title>Feuille.3</title>
				<rect x="0" y="52.375" width="0.0318898" height="0.0318898" class="st1"/>
			</g>
			<g id="shape4-6" v:mID="4" v:groupContext="shape">
				<title>Sheet.4</title>
				<rect x="0" y="1.44" width="51.0236" height="50.9669" class="st2"/>
			</g>
			<g id="group5-8" transform="translate(2.21102,-35.7591)" v:mID="5" v:groupContext="group">
				<title>Feuille.413</title>
				<g id="shape6-9" v:mID="6" v:groupContext="shape">
					<title>Feuille.414</title>
					<rect x="0" y="38.8006" width="13.6063" height="13.6063" class="st3"/>
				</g>
				<g id="shape7-11" v:mID="7" v:groupContext="shape" transform="translate(4.53544,-3.52852)">
					<title>Feuille.415</title>
					<path d="M0.3 49.08 L2.32 45.86 L4.53 45.86 L2.02 48.37 L4.03 48.37 L0 52.41 L2.12 49.08 L0.3 49.08 Z"
							class="st1"/>
				</g>
			</g>
			<g id="shape16-13" v:mID="16" v:groupContext="shape" transform="translate(5.6126,-5.6126)">
				<title>Sheet.16</title>
				<path d="M26.36 34.36 L34.58 29.62" class="st4"/>
				<path d="M28.04 26.92 L19.84 12.72 L11.65 26.92" class="st4"/>
				<path d="M23.77 29.88 L31.99 25.13" class="st4"/>
				<path d="M31.06 32.15 L39.69 47.23" class="st4"/>
				<path d="M13.33 34.36 L5.11 29.62" class="st4"/>
				<path d="M15.91 29.88 L7.7 25.13" class="st4"/>
				<path d="M8.63 32.15 L0 47.23 L16.82 47.23" class="st4"/>
				<path d="M17.25 52.41 L17.25 42.92" class="st4"/>
				<path d="M39.25 47.23 L22.86 47.23" class="st4"/>
				<path d="M22.43 52.41 L22.43 42.92" class="st4"/>
			</g>
		</g>
	</g>
</svg>
